svg/device/wifi_line.svg

<?xml version="1.0" encoding="UTF-8"?>
<svg width="24px" height="24px" viewBox="0 0 24 24" version="1.1" xmlns="http://www.w3.org/2000/svg" xmlns:xlink="http://www.w3.org/1999/xlink">
    <title>wifi_line</title>
    <g id="页面-1" stroke="none" stroke-width="1" fill="none" fill-rule="evenodd">
        <g id="Device" transform="translate(-720.000000, -96.000000)" fill-rule="nonzero">
            <g id="wifi_line" transform="translate(720.000000, 96.000000)">
                 <path d="M24,0 L24,24 L0,24 L0,0 L24,0 Z M12.5934901,23.257841 L12.5819402,23.2595131 L12.5108777,23.2950439 L12.4918791,23.2987469 L12.4918791,23.2987469 L12.4767152,23.2950439 L12.4056548,23.2595131 C12.3958229,23.2563662 12.3870493,23.2590235 12.3821421,23.2649074 L12.3780323,23.275831 L12.360941,23.7031097 L12.3658947,23.7234994 L12.3769048,23.7357139 L12.4804777,23.8096931 L12.4953491,23.8136134 L12.4953491,23.8136134 L12.5071152,23.8096931 L12.6106902,23.7357139 L12.6232938,23.7196733 L12.6232938,23.7196733 L12.6266527,23.7031097 L12.609561,23.275831 C12.6075724,23.2657013 12.6010112,23.2592993 12.5934901,23.257841 L12.5934901,23.257841 Z M12.8583906,23.1452862 L12.8445485,23.1473072 L12.6598443,23.2396597 L12.6498822,23.2499052 L12.6498822,23.2499052 L12.6471943,23.2611114 L12.6650943,23.6906389 L12.6699349,23.7034178 L12.6699349,23.7034178 L12.678386,23.7104931 L12.8793402,23.8032389 C12.8914285,23.8068999 12.9022333,23.8029875 12.9078286,23.7952264 L12.9118235,23.7811639 L12.8776777,23.1665331 C12.8752882,23.1545897 12.8674102,23.1470016 12.8583906,23.1452862 L12.8583906,23.1452862 Z M12.1430473,23.1473072 C12.1332178,23.1423925 12.1221763,23.1452606 12.1156365,23.1525954 L12.1099173,23.1665331 L12.0757714,23.7811639 C12.0751323,23.7926639 12.0828099,23.8018602 12.0926481,23.8045676 L12.108256,23.8032389 L12.3092106,23.7104931 L12.3186497,23.7024347 L12.3186497,23.7024347 L12.3225043,23.6906389 L12.340401,23.2611114 L12.337245,23.2485176 L12.337245,23.2485176 L12.3277531,23.2396597 L12.1430473,23.1473072 Z" id="MingCute" fill-rule="nonzero"></path>
                <path d="M12,17 C12.5523,17 13,17.4477 13,18 C13,18.5523 12.5523,19 12,19 C11.4477,19 11,18.5523 11,18 C11,17.4477 11.4477,17 12,17 Z M11.9999,13 C13.3804,13 14.6317,13.5607 15.5355,14.4645 C15.926,14.855 15.926,15.4882 15.5355,15.8787 C15.1449,16.2692 14.5118,16.2692 14.1213,15.8787 C13.5773,15.3347 12.8286,15 11.9999,15 C11.1712,15 10.4226,15.3347 9.87861,15.8787 C9.48809,16.2692 8.85492,16.2692 8.4644,15.8787 C8.07387,15.4882 8.07387,14.855 8.4644,14.4645 C9.36812,13.5607 10.6195,13 11.9999,13 Z M11.9999,9 C14.4849,9 16.7363,10.0085 18.3639,11.636 C18.7544,12.0266 18.7544,12.6597 18.3639,13.0503 C17.9734,13.4408 17.3402,13.4408 16.9497,13.0503 C15.6818,11.7824 13.9332,11 11.9999,11 C10.0667,11 8.31803,11.7824 7.05018,13.0503 C6.65966,13.4408 6.02649,13.4408 5.63597,13.0503 C5.24544,12.6597 5.24544,12.0266 5.63597,11.636 C7.26355,10.0085 9.51493,9 11.9999,9 Z M11.9999,5 C15.5895,5 18.8409,6.45617 21.1923,8.80761 C21.5828,9.19814 21.5828,9.8313 21.1923,10.2218 C20.8018,10.6123 20.1686,10.6123 19.7781,10.2218 C17.7864,8.23012 15.0378,7 11.9999,7 C8.96209,7 6.21346,8.23012 4.22176,10.2218 C3.83123,10.6123 3.19807,10.6123 2.80754,10.2218 C2.41702,9.8313 2.41702,9.19814 2.80754,8.80761 C5.15898,6.45617 8.41036,5 11.9999,5 Z" id="形状" fill="#09244B"></path>
            </g>
        </g>
    </g>
</svg>

<svg xmlns="http://www.w3.org/2000/svg" width="24" height="24"><g fill="none" fill-rule="nonzero"><path d="M24 0v24H0V0h24ZM12.593 23.258l-.011.002-.071.035-.02.004-.014-.004-.071-.035c-.01-.004-.019-.001-.024.005l-.004.01-.017.428.005.02.01.013.104.074.015.004.012-.004.104-.074.012-.016.004-.017-.017-.427c-.002-.01-.009-.017-.017-.018Zm.265-.113-.013.002-.185.093-.01.01-.003.011.018.43.005.012.008.007.201.093c.012.004.023 0 .029-.008l.004-.014-.034-.614c-.003-.012-.01-.02-.02-.022Zm-.715.002a.023.023 0 0 0-.027.006l-.006.014-.034.614c0 .012.007.02.017.024l.015-.002.201-.093.01-.008.004-.011.017-.43-.003-.012-.01-.01-.184-.092Z"/><path fill="#09244B" d="M12 17a1 1 0 1 1 0 2 1 1 0 0 1 0-2Zm0-4c1.38 0 2.632.56 3.536 1.464a1 1 0 0 1-1.415 1.415A2.988 2.988 0 0 0 12 15c-.829 0-1.577.335-2.121.879a1 1 0 0 1-1.415-1.415A4.987 4.987 0 0 1 12 13Zm0-4a8.975 8.975 0 0 1 6.364 2.636 1 1 0 0 1-1.414 1.414A6.975 6.975 0 0 0 12 11a6.975 6.975 0 0 0-4.95 2.05 1 1 0 0 1-1.414-1.414A8.975 8.975 0 0 1 12 9Zm0-4c3.59 0 6.84 1.456 9.192 3.808a1 1 0 0 1-1.414 1.414A10.962 10.962 0 0 0 12 7c-3.038 0-5.787 1.23-7.778 3.222a1 1 0 0 1-1.414-1.414A12.962 12.962 0 0 1 12 5Z"/></g></svg>
